packages/dnb-ui-lib/assets/icons/mastercard_card_medium.svg

<svg width="24" height="24" viewBox="0 0 24 24" fill="none" xmlns="http://www.w3.org/2000/svg">
<path d="M6.94523 19.4798C7.35834 19.51 7.71775 19.1996 7.748 18.7865C7.77825 18.3734 7.46788 18.014 7.05477 17.9838L6.94523 19.4798ZM13.4346 11.1102C13.4954 11.5199 13.8769 11.8027 14.2866 11.7419C14.6963 11.681 14.9791 11.2995 14.9183 10.8898L13.4346 11.1102ZM9.0817 10.8898C9.02085 11.2995 9.30367 11.681 9.71339 11.7419C10.1231 11.8027 10.5046 11.5199 10.5654 11.1102L9.0817 10.8898ZM11.1486 9.2834C11.3364 8.91422 11.1894 8.46267 10.8202 8.27484C10.4511 8.08701 9.99953 8.23403 9.8117 8.6032L11.1486 9.2834ZM22.4346 11.1102C22.4954 11.5199 22.8769 11.8027 23.2866 11.7419C23.6963 11.681 23.9791 11.2995 23.9183 10.8898L22.4346 11.1102ZM1.5 12C1.5 8.68629 4.18629 6 7.5 6V4.5C3.35786 4.5 0 7.85786 0 12H1.5ZM7.5 6C9.03719 6 10.4378 6.57709 11.4998 7.52761L12.5002 6.40991C11.1738 5.22276 9.42041 4.5 7.5 4.5V6ZM12.5002 7.52761C13.5622 6.57709 14.9628 6 16.5 6V4.5C14.5796 4.5 12.8262 5.22276 11.4998 6.40991L12.5002 7.52761ZM7.05477 17.9838C3.94935 17.7564 1.5 15.1639 1.5 12H0C0 15.9556 3.06177 19.1954 6.94523 19.4798L7.05477 17.9838ZM11.4998 7.52761C12.5199 8.44061 13.2245 9.6955 13.4346 11.1102L14.9183 10.8898C14.6551 9.11749 13.7726 7.54871 12.5002 6.40991L11.4998 7.52761ZM10.5654 11.1102C10.6618 10.4614 10.8619 9.84684 11.1486 9.2834L9.8117 8.6032C9.45292 9.30837 9.20226 10.078 9.0817 10.8898L10.5654 11.1102ZM16.5 6C19.511 6 22.0052 8.21866 22.4346 11.1102L23.9183 10.8898C23.3813 7.27392 20.2653 4.5 16.5 4.5V6ZM11.25 15H22.25V13.5H11.25V15ZM22.25 22.5H11.25V24H22.25V22.5ZM11 22.25V19.75H9.5V22.25H11ZM11 19.75V15.25H9.5V19.75H11ZM22.5 15.25V19.75H24V15.25H22.5ZM22.5 19.75V22.25H24V19.75H22.5ZM10.25 20.5H23.25V19H10.25V20.5ZM11.25 22.5C11.1119 22.5 11 22.3881 11 22.25H9.5C9.5 23.2165 10.2835 24 11.25 24V22.5ZM22.25 24C23.2165 24 24 23.2165 24 22.25H22.5C22.5 22.3881 22.3881 22.5 22.25 22.5V24ZM22.25 15C22.3881 15 22.5 15.1119 22.5 15.25H24C24 14.2835 23.2165 13.5 22.25 13.5V15ZM11.25 13.5C10.2835 13.5 9.5 14.2835 9.5 15.25H11C11 15.1119 11.1119 15 11.25 15V13.5Z" fill="black"/>
</svg>

<svg width="24" height="24" viewBox="0 0 24 24" fill="none" xmlns="http://www.w3.org/2000/svg"><path d="M6.945 19.48a.75.75 0 00.11-1.496l-.11 1.496zm6.49-8.37a.75.75 0 101.483-.22l-1.483.22zm-4.353-.22a.75.75 0 001.483.22l-1.483-.22zm2.067-1.607a.75.75 0 00-1.337-.68l1.337.68zm11.286 1.827a.75.75 0 101.483-.22l-1.483.22zM1.5 12a6 6 0 016-6V4.5A7.5 7.5 0 000 12h1.5zm6-6c1.537 0 2.938.577 4 1.528l1-1.118a7.475 7.475 0 00-5-1.91V6zm5 1.528A5.975 5.975 0 0116.5 6V4.5c-1.92 0-3.674.723-5 1.91l1 1.118zM7.055 17.984A6 6 0 011.5 12H0a7.5 7.5 0 006.945 7.48l.11-1.496zM11.5 7.528a5.988 5.988 0 011.935 3.582l1.483-.22A7.488 7.488 0 0012.5 6.41l-1 1.118zm-.935 3.582a5.953 5.953 0 01.584-1.827l-1.337-.68a7.453 7.453 0 00-.73 2.287l1.483.22zM16.5 6a6.002 6.002 0 015.935 5.11l1.483-.22A7.502 7.502 0 0016.5 4.5V6zm-5.25 9h11v-1.5h-11V15zm11 7.5h-11V24h11v-1.5zM11 22.25v-2.5H9.5v2.5H11zm0-2.5v-4.5H9.5v4.5H11zm11.5-4.5v4.5H24v-4.5h-1.5zm0 4.5v2.5H24v-2.5h-1.5zm-12.25.75h13V19h-13v1.5zm1 2a.25.25 0 01-.25-.25H9.5c0 .966.784 1.75 1.75 1.75v-1.5zm11 1.5A1.75 1.75 0 0024 22.25h-1.5a.25.25 0 01-.25.25V24zm0-9a.25.25 0 01.25.25H24a1.75 1.75 0 00-1.75-1.75V15zm-11-1.5a1.75 1.75 0 00-1.75 1.75H11a.25.25 0 01.25-.25v-1.5z" fill="#000"/></svg>
